X: 10411
Q: "Moderato"
M: C
L: 1/8
K: G
[|\
d4 cBAG | BAGF GBdf |\
g2fe dBAG | gdcB {B2}A4 |\
d4 cBAG | BAGF GBdf |
g2fe dBec | BdcA [GG4]"_Sy."Bdg |\
fc'af gbd'd | efge dgbd |\
efge dfbd | cfac Bgec |
gBBB {d}c2B2 | gddd gddd |\
gdcB HB2 {A4^A4e4d4=A4^GAB}HA2 {Bc^c}y | d4 cBAG |\
g2fe dBAG | gdcB {B2}A4 |\
d4 ({d}cB)({B}AG) | BAGF GBdf |\


